X:1
T: John Leslie Melville
C:Niel Gow
R:Strathspey
Q: 128
K:Dm
M:4/4
L:1/16
|:A2|d3e f2d2 e2^c2 d4|Ac=Bc G3F E2C2 C3E|d3e f2d2 e2^c2 d4|A2c2 E3G F2D2 D2A2|
d3e f2d2 e2^c2 d4|Ac=Bc G3F E2C2 C3E|d3e f2d2 e2^c2 d4|A2c2 E3G F2D2 D2A2|
FGA2 D2A2 F2A2 d3=B|c3G A2F2 E2C2 C3E|FGA2 D2A2 F2A2 d3=B|c3G E2A2 F2D2 D3A|
FGA2 D2A2 F2A2 d3=B|c3G A2F2 E2C2 C3E|F2A2 G2B2 A2d2 ^c2g2|f3d e3^c c2d2 D2:|
